X:1673
T:The Glen Hornpipe
M:4/4
L:1/8
B:O'Neill's 1673
N:"collected by Fielding"
K:D
(3ABc \
|edcdfABAG|FAdfa2gf|3gbg eg 3faf df|3ege cedcBc|
|edcdfABAG|FAdfa2 gf|3gbg eg 3faf df|3efe 3ABc d2 :|
|: Bc \
|dgfg bgfg|Bdcd gdcd|edcdadcd|edcd bgfg|
|dgfg bgfg|bdcdgdcd|edcdadcd|edcd g2 :|
